apps/scalable/mypaint.svg

<svg xmlns="http://www.w3.org/2000/svg" style="isolation:isolate" width="256" height="256"><defs><filter id="a" width="270.648" height="254.338" x="-7.32" y="2.95" filterUnits="userSpaceOnUse"><feGaussianBlur xmlns="http://www.w3.org/2000/svg" in="SourceGraphic" stdDeviation="4.294"/><feOffset xmlns="http://www.w3.org/2000/svg" dy="4" result="pf_100_offsetBlur"/><feFlood xmlns="http://www.w3.org/2000/svg" flood-opacity=".4"/><feComposite xmlns="http://www.w3.org/2000/svg" in2="pf_100_offsetBlur" operator="in" result="pf_100_dropShadow"/><feBlend xmlns="http://www.w3.org/2000/svg" in="SourceGraphic" in2="pf_100_dropShadow"/></filter></defs><path fill="#4D4D4D" d="M165.685 11.947c74.055 0 84.639 10.557 84.639 84.544v59.251c0 73.986-10.584 84.543-84.639 84.543h-75.37c-74.055 0-84.639-10.557-84.639-84.543V96.491c0-73.987 10.584-84.544 84.639-84.544h75.37z" filter="url(#a)"/><path fill="#FFF" d="M5.676 126.116v29.626c0 73.986 10.584 84.543 84.639 84.543h75.37c74.055 0 84.639-10.557 84.639-84.543v-29.626H5.676z" opacity=".1"/><linearGradient id="b" x1=".092" x2=".509" y1="1.016" y2=".017" gradientTransform="matrix(37.687 0 0 40.744 138.118 126.86)" gradientUnits="userSpaceOnUse"><stop offset="0%" stop-color="#1b90ff"/><stop offset="47.525%" stop-color="#53a0fd"/><stop offset="100%" stop-color="#68ffad"/></linearGradient><path fill="url(#b)" fill-rule="evenodd" d="M161.554 126.86c-4.688.42-11.074 4.791-13.404 11.481-4.127 11.851 3.46 27.389-10.032 26.805 19.471 10.142 39.562-13.586 37.548-26.133-.436-2.714-1.407-4.875-2.68-6.578l-11.432-5.575z"/><linearGradient id="c" x1=".084" x2=".89" y1="1.028" y2=".533" gradientTransform="matrix(35.456 0 0 40.565 140.349 127.038)" gradientUnits="userSpaceOnUse"><stop offset="0%" stop-color="#a197ff"/><stop offset="100%" stop-color="#60ffa4"/></linearGradient><path fill="url(#c)" fill-rule="evenodd" d="M140.781 166.325c18.593 6.824 36.807-15.337 34.885-27.312-.436-2.714-1.407-4.875-2.68-6.578l-11.065-5.397c-2.347 1.956-4.419 4.461-5.823 7.445-6.585 13.994.712 34.016-15.749 31.562.144.095.288.188.432.28z"/><linearGradient id="d" x1=".325" x2=".444" y1=".938" y2="-.009" gradientTransform="matrix(27.514 0 0 40.515 148.291 127.08)" gradientUnits="userSpaceOnUse"><stop offset="0%" stop-color="#dd61fa"/><stop offset="100%" stop-color="#ffdc5a"/></linearGradient><path fill="url(#d)" fill-rule="evenodd" d="M148.514 167.594c15.565-.451 28.805-18.282 27.152-28.581-.436-2.714-1.407-4.875-2.68-6.578l-10.981-5.355c-1.781 2.19-3.225 4.806-4.021 7.735-3.919 14.425 6.387 32.257-9.693 32.684l.223.095z"/><linearGradient id="e" x1=".547" x2=".298" y1=".867" y2="-.086" gradientTransform="matrix(14.919 0 0 32.288 160.887 127.118)" gradientUnits="userSpaceOnUse"><stop offset="0%" stop-color="#fa6196"/><stop offset="100%" stop-color="#ffd849"/></linearGradient><path fill="url(#e)" fill-rule="evenodd" d="M166.249 159.406c6.44-6.157 10.362-14.506 9.417-20.393-.436-2.714-1.407-4.875-2.68-6.578l-10.903-5.317c-.743 2.011-1.188 4.202-1.196 6.476-.035 9.928 7.028 19.666 5.362 25.812z"/><linearGradient id="f" x1=".968" x2=".179" y1=".913" y2="-.153" gradientTransform="matrix(13.173 0 0 17.719 162.633 127.386)" gradientUnits="userSpaceOnUse"><stop offset="0%" stop-color="#ff9532"/><stop offset="100%" stop-color="#ffff46"/></linearGradient><path fill="url(#f)" fill-rule="evenodd" d="M175.2 145.104c.582-2.176.761-4.253.466-6.091-.436-2.714-1.407-4.875-2.68-6.578l-10.353-5.049c.154.488.336.972.546 1.45 3.031 6.869 10.702 11.522 12.021 16.268z"/><g opacity=".5"><linearGradient id="g" x1="1.166" x2="-.119" y1=".277" y2=".364" gradientTransform="matrix(37.687 0 0 40.744 138.118 126.86)" gradientUnits="userSpaceOnUse"><stop offset="0%" stop-color="#ffd900"/><stop offset="14.463%" stop-color="#ffd800"/><stop offset="25.088%" stop-color="#ce4f02"/><stop offset="33.457%" stop-color="#d30079"/><stop offset="53.45%" stop-color="#53a0fd"/><stop offset="100%" stop-color="#0064a2"/></linearGradient><path fill="url(#g)" d="M163.702 159.146c6.76-5.848 10.968-14.311 10.081-19.83-.338-2.107-1.042-3.891-2.065-5.378l-10.495-5.119c-4.352.663-9.437 4.877-11.273 10.149-.646 1.855-1.021 3.933-1.197 6.382-.124 1.719-.144 3.132-.13 6.19.029 5.903-.143 8.157-1.188 10.585-.602 1.397-1.464 2.502-2.594 3.31 6.418 1.078 13.029-1.244 18.861-6.289zm-2.148-32.286l11.432 5.575c1.273 1.703 2.244 3.864 2.68 6.578 2.014 12.547-18.077 36.275-37.548 26.133 13.492.584 5.905-14.954 10.032-26.805 2.33-6.69 8.716-11.061 13.404-11.481z"/></g><linearGradient id="h" x1="7.355" x2="14.054" y1="-26.36" y2="-26.36" gradientTransform="matrix(48.292 24.606 -28.026 55.003 168.895 64.776)" gradientUnits="userSpaceOnUse"><stop offset="0%" stop-color="#828282"/><stop offset="100%" stop-color="#353535"/></linearGradient><path fill="url(#h)" fill-rule="evenodd" d="M184.606 89.008l6.844 3.487-12.496 24.525-6.844-3.487 12.496-24.525zm-14.964 26.022l8.644 4.372a2.502 2.502 0 0 1 1.326 2.716l-1.239 6.3a2.502 2.502 0 0 1-3.592 1.747l-11.625-5.924a2.502 2.502 0 0 1-.735-3.892l4.222-4.749a2.5 2.5 0 0 1 2.999-.57zm16.1-28.252l3.408-6.689a2.502 2.502 0 0 1 3.366-1.093l2.385 1.215a2.502 2.502 0 0 1 1.093 3.366l-3.408 6.688-6.844-3.487z"/><path fill="#FB7C38" d="M103.697 190.311c-4.609 7.264-14.995 9.588-22.261 4.978-7.266-4.61-9.586-14.997-4.977-22.261 4.608-7.264 14.995-9.588 22.26-4.978 7.266 4.61 9.587 14.997 4.978 22.261z"/><path fill="#37A6E6" d="M84.443 130.338c-4.609 7.264-14.997 9.586-22.261 4.978-7.264-4.609-9.587-14.998-4.978-22.261 4.609-7.264 14.997-9.587 22.261-4.978 7.264 4.609 9.587 14.997 4.978 22.261z"/><path fill="#76C22B" d="M114.688 82.67c-4.609 7.264-14.997 9.586-22.261 4.978-7.263-4.609-9.586-14.998-4.978-22.261 4.609-7.264 14.998-9.587 22.261-4.978 7.264 4.608 9.587 14.997 4.978 22.261z"/><path fill="#F76363" d="M177.15 74.546c-4.608 7.264-14.997 9.586-22.261 4.978-7.263-4.609-9.586-14.998-4.977-22.261 4.608-7.264 14.997-9.587 22.261-4.978 7.263 4.608 9.586 14.997 4.977 22.261z"/><g opacity=".4"><linearGradient id="i" x1=".517" x2=".517" y2="1"><stop offset="0%" stop-color="#fff"/><stop offset="12.5%" stop-opacity=".098" stop-color="#fff"/><stop offset="92.5%" stop-opacity=".098"/><stop offset="100%" stop-opacity=".498"/></linearGradient><path fill="none" stroke="url(#i)" stroke-linecap="round" stroke-linejoin="round" stroke-width="4.077" d="M165.685 11.947c74.055 0 84.639 10.557 84.639 84.544v59.251c0 73.986-10.584 84.543-84.639 84.543h-75.37c-74.055 0-84.639-10.557-84.639-84.543V96.491c0-73.987 10.584-84.544 84.639-84.544h75.37z" vector-effect="non-scaling-stroke"/></g></svg>

<svg xmlns="http://www.w3.org/2000/svg" style="isolation:isolate" width="256" height="256" viewBox="0 0 256 256">
 <defs>
  <filter id="EUe2huHJ7V1ATZbTzw7nPaSRyoIIme4t" width="270.648" height="254.338" x="-7.32" y="2.95" filterUnits="userSpaceOnUse">
   <feGaussianBlur xmlns="http://www.w3.org/2000/svg" in="SourceGraphic" stdDeviation="4.294"/>
   <feOffset xmlns="http://www.w3.org/2000/svg" dx="0" dy="4" result="pf_100_offsetBlur"/>
   <feFlood xmlns="http://www.w3.org/2000/svg" flood-opacity=".4"/>
   <feComposite xmlns="http://www.w3.org/2000/svg" in2="pf_100_offsetBlur" operator="in" result="pf_100_dropShadow"/>
   <feBlend xmlns="http://www.w3.org/2000/svg" in="SourceGraphic" in2="pf_100_dropShadow" mode="normal"/>
  </filter>
 </defs>
 <g filter="url(#EUe2huHJ7V1ATZbTzw7nPaSRyoIIme4t)">
  <path fill="#4D4D4D" d="M 165.685 11.947 C 239.74 11.947 250.324 22.504 250.324 96.491 L 250.324 155.742 C 250.324 229.728 239.74 240.285 165.685 240.285 L 90.315 240.285 C 16.26 240.285 5.676 229.728 5.676 155.742 L 5.676 96.491 C 5.676 22.504 16.26 11.947 90.315 11.947 L 165.685 11.947 Z"/>
 </g>
 <g opacity=".1">
  <path fill="#FFFFFF" d="M 5.676 126.116 L 5.676 155.742 C 5.676 229.728 16.26 240.285 90.315 240.285 L 165.685 240.285 C 239.74 240.285 250.324 229.728 250.324 155.742 L 250.324 126.116 L 5.676 126.116 Z"/>
 </g>
 <g>
  <linearGradient id="_lgradient_242" x1=".092" x2=".509" y1="1.016" y2=".017" gradientTransform="matrix(37.687,0,0,40.744,138.118,126.86)" gradientUnits="userSpaceOnUse">
   <stop offset="0%" style="stop-color:rgb(27,144,255)"/>
   <stop offset="47.525%" style="stop-color:rgb(83,160,253)"/>
   <stop offset="100%" style="stop-color:rgb(104,255,173)"/>
  </linearGradient>
  <path fill="url(#_lgradient_242)" fill-rule="evenodd" d="M 161.554 126.86 C 156.866 127.28 150.48 131.651 148.15 138.341 C 144.023 150.192 151.61 165.73 138.118 165.146 C 157.589 175.288 177.68 151.56 175.666 139.013 C 175.23 136.299 174.259 134.138 172.986 132.435 L 161.554 126.86 Z"/>
  <linearGradient id="_lgradient_243" x1=".084" x2=".89" y1="1.028" y2=".533" gradientTransform="matrix(35.456,0,0,40.565,140.349,127.038)" gradientUnits="userSpaceOnUse">
   <stop offset="0%" style="stop-color:rgb(161,151,255)"/>
   <stop offset="100%" style="stop-color:rgb(96,255,164)"/>
  </linearGradient>
  <path fill="url(#_lgradient_243)" fill-rule="evenodd" d="M 140.781 166.325 C 159.374 173.149 177.588 150.988 175.666 139.013 C 175.23 136.299 174.259 134.138 172.986 132.435 L 161.921 127.038 C 159.574 128.994 157.502 131.499 156.098 134.483 C 149.513 148.477 156.81 168.499 140.349 166.045 C 140.493 166.14 140.637 166.233 140.781 166.325 L 140.781 166.325 Z"/>
  <linearGradient id="_lgradient_244" x1=".325" x2=".444" y1=".938" y2="-.009" gradientTransform="matrix(27.514,0,0,40.515,148.291,127.08)" gradientUnits="userSpaceOnUse">
   <stop offset="0%" style="stop-color:rgb(221,97,250)"/>
   <stop offset="100%" style="stop-color:rgb(255,220,90)"/>
  </linearGradient>
  <path fill="url(#_lgradient_244)" fill-rule="evenodd" d="M 148.514 167.594 C 164.079 167.143 177.319 149.312 175.666 139.013 C 175.23 136.299 174.259 134.138 172.986 132.435 L 162.005 127.08 C 160.224 129.27 158.78 131.886 157.984 134.815 C 154.065 149.24 164.371 167.072 148.291 167.499 C 148.366 167.531 148.44 167.563 148.514 167.594 L 148.514 167.594 Z"/>
  <linearGradient id="_lgradient_245" x1=".547" x2=".298" y1=".867" y2="-.086" gradientTransform="matrix(14.919,0,0,32.288,160.887,127.118)" gradientUnits="userSpaceOnUse">
   <stop offset="0%" style="stop-color:rgb(250,97,150)"/>
   <stop offset="100%" style="stop-color:rgb(255,216,73)"/>
  </linearGradient>
  <path fill="url(#_lgradient_245)" fill-rule="evenodd" d="M 166.249 159.406 C 172.689 153.249 176.611 144.9 175.666 139.013 C 175.23 136.299 174.259 134.138 172.986 132.435 L 162.083 127.118 C 161.34 129.129 160.895 131.32 160.887 133.594 C 160.852 143.522 167.915 153.26 166.249 159.406 Z"/>
  <linearGradient id="_lgradient_246" x1=".968" x2=".179" y1=".913" y2="-.153" gradientTransform="matrix(13.173,0,0,17.719,162.633,127.386)" gradientUnits="userSpaceOnUse">
   <stop offset="0%" style="stop-color:rgb(255,149,50)"/>
   <stop offset="100%" style="stop-color:rgb(255,255,70)"/>
  </linearGradient>
  <path fill="url(#_lgradient_246)" fill-rule="evenodd" d="M 175.2 145.104 C 175.782 142.928 175.961 140.851 175.666 139.013 C 175.23 136.299 174.259 134.138 172.986 132.435 L 162.633 127.386 C 162.787 127.874 162.969 128.358 163.179 128.836 C 166.21 135.705 173.881 140.358 175.2 145.104 L 175.2 145.104 Z"/>
  <g opacity=".5">
   <linearGradient id="_lgradient_247" x1="1.166" x2="-.119" y1=".277" y2=".364" gradientTransform="matrix(37.687,0,0,40.744,138.118,126.86)" gradientUnits="userSpaceOnUse">
    <stop offset="0%" style="stop-color:rgb(255,217,0)"/>
    <stop offset="14.463%" style="stop-color:rgb(255,216,0)"/>
    <stop offset="25.088%" style="stop-color:rgb(206,79,2)"/>
    <stop offset="33.457%" style="stop-color:rgb(211,0,121)"/>
    <stop offset="53.45%" style="stop-color:rgb(83,160,253)"/>
    <stop offset="100%" style="stop-color:rgb(0,100,162)"/>
   </linearGradient>
   <path fill="url(#_lgradient_247)" d="M 163.702 159.146 C 170.462 153.298 174.67 144.835 173.783 139.316 C 173.445 137.209 172.741 135.425 171.718 133.938 L 161.223 128.819 C 156.871 129.482 151.786 133.696 149.95 138.968 C 149.304 140.823 148.929 142.901 148.753 145.35 C 148.629 147.069 148.609 148.482 148.623 151.54 C 148.652 157.443 148.48 159.697 147.435 162.125 C 146.833 163.522 145.971 164.627 144.841 165.435 C 151.259 166.513 157.87 164.191 163.702 159.146 Z M 161.554 126.86 L 172.986 132.435 C 174.259 134.138 175.23 136.299 175.666 139.013 C 177.68 151.56 157.589 175.288 138.118 165.146 C 151.61 165.73 144.023 150.192 148.15 138.341 C 150.48 131.651 156.866 127.28 161.554 126.86 L 161.554 126.86 Z"/>
  </g>
  <linearGradient id="_lgradient_248" x1="7.355" x2="14.054" y1="-26.36" y2="-26.36" gradientTransform="matrix(48.292,24.606,-28.026,55.003,168.895,64.776)" gradientUnits="userSpaceOnUse">
   <stop offset="0%" style="stop-color:rgb(130,130,130)"/>
   <stop offset="100%" style="stop-color:rgb(53,53,53)"/>
  </linearGradient>
  <path fill="url(#_lgradient_248)" fill-rule="evenodd" d="M 184.606 89.008 L 191.45 92.495 L 178.954 117.02 L 172.11 113.533 L 184.606 89.008 Z M 169.642 115.03 L 178.286 119.402 C 179.287 119.908 179.828 121.018 179.612 122.118 L 178.373 128.418 C 178.106 129.774 176.791 130.657 175.435 130.39 C 175.207 130.346 174.988 130.27 174.781 130.165 L 163.156 124.241 C 161.924 123.614 161.435 122.107 162.062 120.875 C 162.159 120.685 162.28 120.509 162.421 120.349 L 166.643 115.6 L 166.643 115.6 C 167.397 114.751 168.629 114.517 169.642 115.03 Z M 185.742 86.778 L 189.15 80.089 C 189.777 78.858 191.284 78.368 192.516 78.996 L 194.901 80.211 C 196.132 80.838 196.622 82.345 195.994 83.577 L 192.586 90.265 L 185.742 86.778 Z"/>
  <g>
   <path fill="#FB7C38" d="M 103.697 190.311 C 99.088 197.575 88.702 199.899 81.436 195.289 C 74.17 190.679 71.85 180.292 76.459 173.028 C 81.067 165.764 91.454 163.44 98.719 168.05 C 105.985 172.66 108.306 183.047 103.697 190.311 Z"/>
   <path fill="#37A6E6" d="M 84.443 130.338 C 79.834 137.602 69.446 139.924 62.182 135.316 C 54.918 130.707 52.595 120.318 57.204 113.055 C 61.813 105.791 72.201 103.468 79.465 108.077 C 86.729 112.686 89.052 123.074 84.443 130.338 Z"/>
   <path fill="#76C22B" d="M 114.688 82.67 C 110.079 89.934 99.691 92.256 92.427 87.648 C 85.164 83.039 82.841 72.65 87.449 65.387 C 92.058 58.123 102.447 55.8 109.71 60.409 C 116.974 65.017 119.297 75.406 114.688 82.67 Z"/>
   <path fill="#F76363" d="M 177.15 74.546 C 172.542 81.81 162.153 84.132 154.889 79.524 C 147.626 74.915 145.303 64.526 149.912 57.263 C 154.52 49.999 164.909 47.676 172.173 52.285 C 179.436 56.893 181.759 67.282 177.15 74.546 Z"/>
  </g>
 </g>
 <g opacity=".4">
  <linearGradient id="_lgradient_249" x1=".517" x2=".517" y1="0" y2="1">
   <stop offset="0%" style="stop-color:rgb(255,255,255)"/>
   <stop offset="12.5%" stop-opacity=".098" style="stop-color:rgb(255,255,255)"/>
   <stop offset="92.5%" stop-opacity=".098" style="stop-color:rgb(0,0,0)"/>
   <stop offset="100%" stop-opacity=".498" style="stop-color:rgb(0,0,0)"/>
  </linearGradient>
  <path fill="none" stroke="url(#_lgradient_249)" stroke-linecap="round" stroke-linejoin="round" stroke-width="4.077" d="M 165.685 11.947 C 239.74 11.947 250.324 22.504 250.324 96.491 L 250.324 155.742 C 250.324 229.728 239.74 240.285 165.685 240.285 L 90.315 240.285 C 16.26 240.285 5.676 229.728 5.676 155.742 L 5.676 96.491 C 5.676 22.504 16.26 11.947 90.315 11.947 L 165.685 11.947 Z" vector-effect="non-scaling-stroke"/>
 </g>
</svg>
